X: 20453
M: C
L: 1/8
K: D
dcde defd | edef efge |\
dcde defd | ecdB ABcA |\
dcde defd | edef efge |\
fadf egce | d2f2d2 :|
|: ag |\
fgaf gabg | efge fgaf |\
defd efgf | edcB ABcA |\
dcde defd | edef efge |\
fadf egfe | d2f2d2 :|


